public/assets/img/dropbox.svg

<?xml version="1.0" encoding="UTF-8" standalone="no"?>
<svg width="256px" height="239px" viewBox="0 0 256 239" version="1.1" xmlns="http://www.w3.org/2000/svg" xmlns:xlink="http://www.w3.org/1999/xlink" preserveAspectRatio="xMidYMid">
    <g>
        <path d="M52.0690243,90.8713318 L0,49.1724855 L75.3070498,0.000762509919 L127.99911,43.9848764 L52.0693733,90.8716113 L127.999365,137.757584 L75.307304,181.744239 L0.000254158116,132.572516 L52.0690243,90.8713318 L52.0690243,90.8713318 Z M128.000127,137.757584 L180.694729,181.744239 L255.999238,132.572516 L203.929864,90.8708488 L128.000127,137.757584 Z M256,49.171723 L180.695492,0 L128.00089,43.9841138 L203.930627,90.8708488 L256,49.171723 Z M128.154147,147.22084 L75.3070498,191.075327 L52.6946022,176.310594 L52.6946022,192.864684 L128.154147,238.119648 L203.616233,192.864684 L203.616233,176.310594 L181.006327,191.075327 L128.154147,147.22084 Z" fill="#007EE5"></path>
    </g>
</svg>

<svg xmlns="http://www.w3.org/2000/svg" width="256" height="239" preserveAspectRatio="xMidYMid"><path fill="#007EE5" d="M52.07 90.87L0 49.17 75.3 0 128 43.98l-75.93 46.9L128 137.75l-52.7 43.98L0 132.57l52.07-41.7zm75.93 46.9l52.7 43.97 75.3-49.17-52.07-41.7-75.93 46.9zm128-88.6L180.7 0 128 43.98l75.93 46.9L256 49.17zm-127.85 98.05L75.3 191.08 52.7 176.3v16.56l75.45 45.26 75.47-45.26V176.3l-22.6 14.78-52.87-43.86z"/></svg>
